build/flags/Morocco.svg

<svg xmlns="http://www.w3.org/2000/svg" fill="none" viewBox="0 0 28 28" focusable="false"><defs><filter id="Morocco_svg__a"><feColorMatrix values="0 0 0 0 1 0 0 0 0 1 0 0 0 0 1 0 0 0 1 0"/></filter></defs><mask id="Morocco_svg__b" width="28" height="20" x="0" y="4" maskUnits="userSpaceOnUse"><g filter="url(#Morocco_svg__a)"><rect width="28" height="20" y="4" fill="#FFF" rx="3"/><rect width="28" height="20" y="4" stroke="#969696" stroke-opacity="0" stroke-width="0" rx="3"/></g></mask><path fill="none" d="M0 0H28V28H0z"/><rect width="28" height="20" y="4" fill="#FFF" rx="3"/><rect width="28" height="20" y="4" rx="3"/><g mask="url(#Morocco_svg__b)"><path fill="#E33B44" d="M0 4H28V24H0z"/><path d="M0 4H28V24H0z"/><path fill="none" d="M14 16.34L10.4733 18.8541L11.7745 14.7231L8.29366 12.1459L12.6246 12.1069L14 8L15.3754 12.1069L19.7063 12.1459L16.2255 14.7231L17.5267 18.8541L14 16.34Z"/><path fill="#0A6135" fill-rule="evenodd" d="M11.7745 14.7231L10.4733 18.8541L12.276 17.569L14 16.34L15.724 17.569L17.5267 18.8541L16.2255 14.7231L17.9271 13.4633L19.7063 12.1459L17.4925 12.126L15.3754 12.1069L14.7031 10.0993L14 8L13.2969 10.0993L12.6246 12.1069L10.5075 12.126L8.29366 12.1459L10.0729 13.4633L11.7745 14.7231ZM12.2867 13.4433L13.3318 14.2171L12.9412 15.4574L14 14.7026L15.0588 15.4574L14.6682 14.2171L15.7133 13.4433L14.413 13.4316L14 12.1986L13.587 13.4316L12.2867 13.4433Z"/></g></svg>

<svg xmlns="http://www.w3.org/2000/svg" fill="none" viewBox="0 0 28 28" focusable="false"><path fill="none" d="M0 0h28v28H0z"/><rect width="28" height="20" y="4" fill="#FFF" rx="3"/><rect width="28" height="20" y="4" rx="3"/><mask id="Morocco_svg__a" width="28" height="20" x="0" y="4" mask-type="alpha" maskUnits="userSpaceOnUse"><rect width="28" height="20" y="4" fill="#FFF" rx="3"/><rect width="28" height="20" y="4" stroke="#979797" stroke-opacity="0" stroke-width="0" rx="3"/></mask><g mask="url(#Morocco_svg__a)"><path fill="#E33B44" d="M0 4h28v20H0z"/><path d="M0 4h28v20H0z"/></g><g mask="url(#Morocco_svg__a)"><path fill="none" d="m14 16.34-3.53 2.51 1.3-4.13-3.48-2.58 4.33-.04L14 8l1.37 4.1 4.33.04-3.48 2.58 1.3 4.13z"/><path fill="#0A6135" fill-rule="evenodd" d="m11.77 14.72-.64 2.02-.66 2.11 1.8-1.29L14 16.34l1.72 1.22 1.8 1.29-1.3-4.13 1.7-1.26 1.78-1.32-2.21-.02-2.12-.02-.67-2.01L14 8l-.71 2.09-.67 2.01-2.12.02-2.21.02 1.78 1.32zm.51-1.28 1.05.77-.39 1.24L14 14.7l1.05.75-.39-1.24 1.05-.77-1.3-.01-.41-1.24-.42 1.24z"/></g></svg>
